svgs/sharp-light/message-middle.svg

<svg xmlns="http://www.w3.org/2000/svg" viewBox="0 0 512 512"><!--! Font Awesome Pro 6.6.0 by @fontawesome - https://fontawesome.com License - https://fontawesome.com/license (Commercial License) Copyright 2024 Fonticons, Inc. --><path d="M173.7 416L32 416 0 416l0-32L0 32 0 0 32 0 480 0l32 0 0 32 0 352 0 32-32 0-141.7 0-61.2 71.4L256 512l-21.1-24.6L173.7 416zM256 462.8l58-67.7 9.6-11.2 14.7 0L480 384l0-352L32 32l0 352 141.7 0 14.7 0 9.6 11.2 58 67.7z"/></svg>

<svg xmlns="http://www.w3.org/2000/svg" viewBox="0 0 512 512"><!--! Font Awesome Pro 6.4.2 by @fontawesome - https://fontawesome.com License - https://fontawesome.com/license (Commercial License) Copyright 2023 Fonticons, Inc. --><path d="M173.7 416H32 0V384 32 0H32 480h32V32 384v32H480 338.3l-61.2 71.4L256 512l-21.1-24.6L173.7 416zM256 462.8l58-67.7 9.6-11.2h14.7H480V32H32V384H173.7h14.7l9.6 11.2 58 67.7z"/></svg>
